X:1
T:Meiringen, 86.86.88
T:Meiringen, 86.86.88
T:Christian Gottlob Neefe, 1777
T:Public Domain Courtesy of the Cyber Hymnal™
C:Christian Gottlob Neefe, 1777
Z:Public Domain
Z:Courtesy of the Cyber Hymnal™
%%score ( 1 2 ) ( 3 4 )
L:1/8
Q:1/4=110
M:4/4
K:Eb
V:1 treble 
V:2 treble 
V:3 bass 
V:4 bass 
V:1
 B,2 | E3 G B2 G2 | F3 A G2 [Ge]2 | [Fd]2 [Ec]2 [EB]2 [C=A]2 | [DB]6 B,2 | E3 G B2 G2 | %6
 F3 A G2 [Ge]2 | [Gd]2 [Gc]2 [FB]2 [E=A]2 | [DB]6 [DB]2 | [CB]3 [Cc] [CA]2 [CA]2 | %10
 [B,A]3 [B,B] [B,G]2 E2 | [EA]2 [EG]2 [Ec]2 (BA) | [EG]4 [DF]4 x2 | E6 |] %14
V:2
 B,2 | E3 G B2 G2 | F3 A G2 x2 | x8 | x6 B,2 | E3 G B2 G2 | F3 A G2 x2 | x8 | x8 | x8 | x6 E2 | %11
 x6 E2 | x10 | E6 |] %14
V:3
 B,,2 | E,3 G, B,2 G,2 | F,3 A, G,2 [C,G,]2 | [D,=B,]2 [E,C]2 F,2 F,2 | [B,,F,]6 B,,2 | %5
 E,3 G, B,2 G,2 | F,3 A, G,2 [C,G,]2 | [D,=B,]2 [E,C]2 [F,D]2 [F,,C]2 | [B,,B,]6 G,2 | %9
 [=E,G,]3 [E,G,] F,2 [_E,F,]2 | [D,F,]3 [D,F,] E,2 [E,G,]2 | %11
 [C,A,]2 [B,,B,]2 [A,,E,]2 ([G,,B,][A,,C]) | B,6 z2 A,2 | [E,G,]6 |] %14
V:4
 B,,2 | E,3 G, B,2 G,2 | F,3 A, G,2 x2 | x4 F,2 F,2 | x6 B,,2 | E,3 G, B,2 G,2 | F,3 A, G,2 x2 | %7
 x8 | x6 G,2 | x4 F,2 x2 | x4 E,2 x2 | x8 | B,,4 B,,4 x2 | x6 |] %14

